X: 07066
T: KATIE'S WALTZ
C: Bob McQuillen 8 Feb 89
B: Bob's Note Book 7 #66
%R: waltz
Z: 2020 John Chambers <jc:trillian.mit.edu>
M: 3/4
L: 1/4
K: G
D/E/ \
| GB>G | "D7"A2G/A/ | "G"Bd>g | "C"e3 | "G"g2f/e/| "Bm"dBd | "C"cd>e | "D"d3 |
| GB>G | "D7"A2G/A/ | "G"Bd>g | "C"e3 | "G"g2f/e/| "Bm"dBB/d/ | "C"c"D7"BA | "G"G2 :|
|: B/d/ \
| "G"g3 | "Bm"f3 | "C"eg>a | "G"gdB | "C"ceg | "Em"geg | "Am"ba>g | "D7"a3 |
| "G"g>ag | "Bm"fbf | "C"e/d/ e/f/ g/a/ | "G"gdB | "C"c>de | "G"dgB | "D7"A>GA | "G"G2 :|
%%begintext align
%% Katie Donath
%% was another of my favorite school girls.
%% She and Julie Blackmore were best friends.
%% What a great pair they were! Much love to you,
%% Katie, from MAC
%%endtext

%%sep 1 1 500

%%sep 1 1 500

